surround-sound-2-0.svg

<svg fill="currentColor" viewBox="0 0 24 24"><path d="M3 7v2h4v2H5c-1.1 0-2 .9-2 2v4h6v-2H5v-2h2c1.1 0 2-.9 2-2V9c0-1.1-.9-2-2-2zm10 10h-2v-2h2zm4-10c-1.1 0-2 .9-2 2v6c0 1.1.9 2 2 2h2c1.1 0 2-.9 2-2V9c0-1.1-.9-2-2-2zm0 2h2v6h-2z"/></svg>

<svg  viewBox="0 0 24 24" fill="currentColor"><path  d="M3 7V9H7V11H5C3.9 11 3 11.9 3 13V17H9V15H5V13H7C8.1 13 9 12.1 9 11V9C9 7.9 8.1 7 7 7H3M13 17H11V15H13V17M17 7C15.9 7 15 7.9 15 9V15C15 16.1 15.9 17 17 17H19C20.1 17 21 16.1 21 15V9C21 7.9 20.1 7 19 7H17M17 9H19V15H17V9Z"/></svg>
